docs/img/tariffs/icon-btn-card.svg

<svg width="25" height="22" viewBox="0 0 25 22" fill="none" xmlns="http://www.w3.org/2000/svg">
<g clip-path="url(#clip0)">
<path d="M21.9061 13.75H9.18281L9.46688 15.125H21.117C21.7854 15.125 22.2809 15.7395 22.1327 16.3848L21.8933 17.4279C22.7045 17.8178 23.2639 18.641 23.2639 19.5938C23.2639 20.9345 22.1563 22.0191 20.7976 21.9997C19.5032 21.9813 18.4386 20.9414 18.4037 19.6602C18.3846 18.9604 18.6678 18.3261 19.133 17.875H10.0337C10.4841 18.3118 10.7639 18.9203 10.7639 19.5938C10.7639 20.9607 9.6125 22.0615 8.21745 21.9973C6.97873 21.9404 5.97131 20.9495 5.90621 19.7236C5.85595 18.7768 6.35916 17.9423 7.1237 17.507L4.07478 2.75H1.04167C0.466363 2.75 0 2.2883 0 1.71875V1.03125C0 0.461699 0.466363 0 1.04167 0H5.49171C5.98655 0 6.41306 0.344652 6.51224 0.82457L6.91007 2.75H23.9579C24.6263 2.75 25.1218 3.3645 24.9737 4.0098L22.9219 12.9473C22.8141 13.4168 22.3925 13.75 21.9061 13.75ZM17.4926 8.25H15.625V5.67188C15.625 5.38712 15.3918 5.15625 15.1042 5.15625H14.0625C13.7749 5.15625 13.5417 5.38712 13.5417 5.67188V8.25H11.6741C11.2101 8.25 10.9777 8.80541 11.3058 9.13021L14.2151 12.0104C14.4184 12.2117 14.7482 12.2117 14.9516 12.0104L17.8609 9.13021C18.189 8.80541 17.9566 8.25 17.4926 8.25Z" fill="white"/>
</g>
<defs>
<clipPath id="clip0">
<rect width="25" height="22" fill="white"/>
</clipPath>
</defs>
</svg>

<svg width="25" height="22" fill="none" xmlns="http://www.w3.org/2000/svg"><g clip-path="url(#clip0)"><path d="M21.906 13.75H9.183l.284 1.375h11.65c.668 0 1.164.614 1.016 1.26l-.24 1.043a2.405 2.405 0 011.37 2.166c0 1.34-1.107 2.425-2.465 2.406-1.295-.019-2.36-1.059-2.394-2.34-.02-.7.264-1.334.729-1.785h-9.1c.451.437.73 1.045.73 1.719 0 1.367-1.15 2.467-2.546 2.403-1.238-.057-2.246-1.047-2.31-2.273a2.4 2.4 0 011.217-2.217L4.074 2.75H1.043A1.036 1.036 0 010 1.719V1.03C0 .461.466 0 1.042 0h4.45c.495 0 .921.345 1.02.825L6.91 2.75h17.048c.668 0 1.164.615 1.016 1.26l-2.052 8.937a1.04 1.04 0 01-1.016.803zm-4.413-5.5h-1.868V5.672a.518.518 0 00-.52-.516h-1.043a.518.518 0 00-.52.516V8.25h-1.868a.515.515 0 00-.368.88l2.91 2.88a.525.525 0 00.736 0l2.909-2.88a.515.515 0 00-.368-.88z" fill="#fff"/></g><defs><clipPath id="clip0"><path fill="#fff" d="M0 0h25v22H0z"/></clipPath></defs></svg>
